docs/themes/v2/source/images/new/logofooter.svg

<svg width="118" height="28" viewBox="0 0 118 28" fill="none" xmlns="http://www.w3.org/2000/svg">
<path d="M35.452 22H38.356V15.598H44.076V22H46.98V6.6H44.076V12.958H38.356V6.6H35.452V22ZM54.9495 22.308C57.9415 22.308 59.2395 20.614 59.8555 19.448L57.5895 18.26C57.2155 19.096 56.5775 19.888 55.0375 19.888C53.4975 19.888 52.3315 18.854 52.2655 17.358H60.2075V16.412C60.2075 13.068 58.1175 10.78 54.9055 10.78C51.6495 10.78 49.4495 12.98 49.4495 16.412V16.676C49.4495 20.108 51.6715 22.308 54.9495 22.308ZM52.2875 15.29C52.4855 14.036 53.3875 13.2 54.8835 13.2C56.3135 13.2 57.2595 14.036 57.3915 15.29H52.2875ZM66.0628 22.308C68.3508 22.308 69.0328 21.076 69.2308 20.526H69.6488V20.548C69.6488 21.428 70.4408 22 71.5188 22H73.3668V19.712H72.4868C72.0908 19.712 71.8708 19.492 71.8708 19.052V14.982C71.8708 12.254 70.0668 10.78 67.2068 10.78C64.3688 10.78 62.9388 12.21 62.4108 13.86L64.9628 14.718C65.1608 13.728 65.7768 13.024 67.1628 13.024C68.5708 13.024 69.1868 13.772 69.1868 14.784V15.4H66.1948C63.7308 15.4 61.9708 16.566 61.9708 18.81C61.9708 21.054 63.7308 22.308 66.0628 22.308ZM66.5468 20.064C65.3588 20.064 64.7428 19.514 64.7428 18.722C64.7428 17.93 65.3588 17.468 66.3928 17.468H69.1868V17.688C69.1868 19.14 68.0868 20.064 66.5468 20.064ZM75.3935 22H78.1655V15.796C78.1655 14.256 79.1775 13.508 80.5855 13.508H81.9495V11.044H80.6295C79.6175 11.044 78.8255 11.44 78.5175 12.32H78.1215V11.088H75.3935V22ZM88.2962 22H91.3762V19.712H89.2642C88.8682 19.712 88.6482 19.492 88.6482 19.052V13.376H91.6402V11.088H88.6482V7.7H85.8762V11.088H83.1482V13.376H85.8762V19.536C85.8762 21.032 86.8442 22 88.2962 22ZM98.7347 22.308C101.727 22.308 103.025 20.614 103.641 19.448L101.375 18.26C101.001 19.096 100.363 19.888 98.8227 19.888C97.2827 19.888 96.1167 18.854 96.0507 17.358H103.993V16.412C103.993 13.068 101.903 10.78 98.6907 10.78C95.4347 10.78 93.2347 12.98 93.2347 16.412V16.676C93.2347 20.108 95.4567 22.308 98.7347 22.308ZM96.0727 15.29C96.2707 14.036 97.1727 13.2 98.6687 13.2C100.099 13.2 101.045 14.036 101.177 15.29H96.0727ZM104.783 22H108.039L110.525 18.326H110.921L113.407 22H116.663L112.703 16.5L116.619 11.088H113.407L110.921 14.718H110.525L108.039 11.088H104.827L108.743 16.5L104.783 22Z" fill="black"/>
<path fill-rule="evenodd" clip-rule="evenodd" d="M3 6H19V22H3V6Z" fill="#E68F52" fill-opacity="0.3"/>
<path fill-rule="evenodd" clip-rule="evenodd" d="M6 5V3H0V9H2V19H0V25H6V23H16V25H22V19H20V9H22V3H16V5H6ZM4 9H6V7H16V9H18V19H16V21H6V19H4V9Z" fill="#E68F52"/>
</svg>

<svg fill="none" height="28" viewBox="0 0 118 28" width="118" xmlns="http://www.w3.org/2000/svg"><path d="m35.452 22h2.904v-6.402h5.72v6.402h2.904v-15.4h-2.904v6.358h-5.72v-6.358h-2.904zm19.4975.308c2.992 0 4.29-1.694 4.906-2.86l-2.266-1.188c-.374.836-1.012 1.628-2.552 1.628s-2.706-1.034-2.772-2.53h7.942v-.946c0-3.344-2.09-5.632-5.302-5.632-3.256 0-5.456 2.2-5.456 5.632v.264c0 3.432 2.222 5.632 5.5 5.632zm-2.662-7.018c.198-1.254 1.1-2.09 2.596-2.09 1.43 0 2.376.836 2.508 2.09zm13.7753 7.018c2.288 0 2.97-1.232 3.168-1.782h.418v.022c0 .88.792 1.452 1.87 1.452h1.848v-2.288h-.88c-.396 0-.616-.22-.616-.66v-4.07c0-2.728-1.804-4.202-4.664-4.202-2.838 0-4.268 1.43-4.796 3.08l2.552.858c.198-.99.814-1.694 2.2-1.694 1.408 0 2.024.748 2.024 1.76v.616h-2.992c-2.464 0-4.224 1.166-4.224 3.41s1.76 3.498 4.092 3.498zm.484-2.244c-1.188 0-1.804-.55-1.804-1.342s.616-1.254 1.65-1.254h2.794v.22c0 1.452-1.1 2.376-2.64 2.376zm8.8467 1.936h2.772v-6.204c0-1.54 1.012-2.288 2.42-2.288h1.364v-2.464h-1.32c-1.012 0-1.804.396-2.112 1.276h-.396v-1.232h-2.728zm12.9027 0h3.08v-2.288h-2.112c-.396 0-.616-.22-.616-.66v-5.676h2.992v-2.288h-2.992v-3.388h-2.772v3.388h-2.728v2.288h2.728v6.16c0 1.496.968 2.464 2.42 2.464zm10.4385.308c2.9923 0 4.2903-1.694 4.9063-2.86l-2.266-1.188c-.374.836-1.012 1.628-2.5523 1.628-1.54 0-2.706-1.034-2.772-2.53h7.9423v-.946c0-3.344-2.09-5.632-5.3023-5.632-3.256 0-5.456 2.2-5.456 5.632v.264c0 3.432 2.222 5.632 5.5 5.632zm-2.662-7.018c.198-1.254 1.1-2.09 2.596-2.09 1.4303 0 2.3763.836 2.5083 2.09zm8.7103 6.71h3.256l2.486-3.674h.396l2.486 3.674h3.256l-3.96-5.5 3.916-5.412h-3.212l-2.486 3.63h-.396l-2.486-3.63h-3.212l3.916 5.412z" fill="#000"/><g clip-rule="evenodd" fill="#e68f52" fill-rule="evenodd"><path d="m3 6h16v16h-16z" fill-opacity=".3"/><path d="m6 5v-2h-6v6h2v10h-2v6h6v-2h10v2h6v-6h-2v-10h2v-6h-6v2zm-2 4h2v-2h10v2h2v10h-2v2h-10v-2h-2z"/></g></svg>
